icons/movie.svg

<svg width="24" height="24" viewBox="0 0 24 24" fill="none" xmlns="http://www.w3.org/2000/svg">
<path fill-rule="evenodd" clip-rule="evenodd" d="M2 4C2 3.44772 2.44772 3 3 3H21C21.5523 3 22 3.44772 22 4V20C22 20.5523 21.5523 21 21 21H3C2.44772 21 2 20.5523 2 20V4ZM4 5V19H20V5H4ZM9.5073 8.1298C9.82081 7.95229 10.2056 7.95715 10.5145 8.14251L15.5145 11.1425C15.8157 11.3232 16 11.6487 16 12C16 12.3513 15.8157 12.6768 15.5145 12.8575L10.5145 15.8575C10.2056 16.0429 9.82081 16.0477 9.5073 15.8702C9.19379 15.6927 9 15.3603 9 15V9C9 8.63973 9.19379 8.30731 9.5073 8.1298ZM11 10.7662V13.2338L13.0563 12L11 10.7662Z" fill="black"/>
</svg>

<svg
  width="24"
  height="24"
  viewBox="0 0 24 24"
  xmlns="http://www.w3.org/2000/svg"
>
  <path
    fill-rule="evenodd"
    clip-rule="evenodd"
    d="M2 4a1 1 0 0 1 1-1h18a1 1 0 0 1 1 1v16a1 1 0 0 1-1 1H3a1 1 0 0 1-1-1V4zm2 1v14h16V5H4zm5.507 3.13a1 1 0 0 1 1.008.013l5 3a1 1 0 0 1 0 1.714l-5 3A1 1 0 0 1 9 15V9a1 1 0 0 1 .507-.87zM11 10.766v2.468L13.056 12 11 10.766z"
  />
</svg>
